svg/mcv4u/line-intersection.svg

<svg xmlns="http://www.w3.org/2000/svg" viewBox="0 0 1010.179 332.622" xml:space="preserve"><path fill="none" stroke="#CCC" stroke-miterlimit="10" d="M945.393 208.21v123m-50-123v123m-50-123v123m-50-123v123m-50-123v123m200-301v161m-50-161v161m-50-161v161m-50-161v161m-50-161v161m66.5 39.5h-117m117 50h-117m300-50h-159m159 50h-159m-14-200h-127m127 50h-127m300-50h-159m159 50h-159"/><path fill="none" stroke="#000" stroke-miterlimit="10" d="M845.393 325.21v-289"/><path d="m848.695 322.138-3.703 1.573-3.703-1.573 3.703 8.779zm0-282.943-3.703-1.573-3.703 1.573 3.703-8.778z"/><path fill="none" stroke="#000" stroke-miterlimit="10" d="M988.893 180.71h-288"/><path d="m985.714 177.213 1.573 3.703-1.573 3.704 8.778-3.704zm-281.943 0-1.574 3.703 1.574 3.704-8.779-3.704z"/><text transform="translate(999.104 186.716)" font-family="'Equity Text B'" font-style="italic" font-size="24">x</text><text transform="translate(842.184 20.471)" font-family="'Equity Text B'" font-style="italic" font-size="24">y</text><path fill="none" stroke="#000" stroke-miterlimit="10" d="M844.893 80.71h-5m5 50h-5m5 50h-5m5 50h-5m5 50h-5m105.5-99.5v5m-50-5v5m-50-5v5m-50-5v5m-50-5v5"/><text transform="translate(736.832 204.561)" font-family="'Concourse T3'" font-size="16">−2</text><text transform="translate(817.052 286.49)" font-family="'Concourse T3'" font-size="16">−2</text><text transform="translate(818.492 236.49)" font-family="'Concourse T3'" font-size="16">−1</text><text transform="translate(826.572 136.49)" font-family="'Concourse T3'" font-size="16">1</text><text transform="translate(825.131 86.49)" font-family="'Concourse T3'" font-size="16">2</text><text transform="translate(787.998 204.561)" font-family="'Concourse T3'" font-size="16">−1</text><text transform="translate(891.198 204.561)" font-family="'Concourse T3'" font-size="16">1</text><text transform="translate(940.498 204.561)" font-family="'Concourse T3'" font-size="16">2</text><path fill="none" stroke="#000" stroke-width="2" stroke-miterlimit="10" d="M700.893 130.21h288"/><path d="m703.433 134.196-1.574-3.703 1.574-3.703-8.779 3.703zm282.443 0 1.573-3.703-1.573-3.703 8.778 3.703z"/><path fill="none" stroke="#000" stroke-width="2" stroke-miterlimit="10" d="M697.754 328.398 992.23 33.435"/><path d="m702.359 329.026-3.732-1.503-1.51-3.729-3.581 8.828zM992.867 38.039l-1.509-3.73-3.733-1.503 8.823-3.596z"/><path fill="none" stroke="#CCC" stroke-miterlimit="10" d="M251.393 208.21v123m-50-123v123m-50-123v123m-50-123v123m-50-123v123m200-301v161m-50-161v161m-50-161v161m-50-161v161m-50-161v161m67.5 39.5h-118m118 50h-118m300-50h-159m159 50h-159m-13-200h-128m128 50h-128m300-50h-159m159 50h-159"/><path fill="none" stroke="#000" stroke-miterlimit="10" d="M151.393 325.21v-289"/><path d="m155.409 322.138-3.703 1.573-3.703-1.573 3.703 8.779zm0-282.943-3.703-1.573-3.703 1.573 3.703-8.778z"/><path fill="none" stroke="#000" stroke-miterlimit="10" d="M294.893 180.71h-287"/><path d="m292.428 177.213 1.573 3.703-1.573 3.704 8.778-3.704zm-281.944 0-1.573 3.703 1.573 3.704-8.778-3.704z"/><text transform="translate(305.818 186.716)" font-family="'Equity Text B'" font-style="italic" font-size="24">x</text><text transform="translate(148.898 20.471)" font-family="'Equity Text B'" font-style="italic" font-size="24">y</text><path fill="none" stroke="#000" stroke-miterlimit="10" d="M150.893 80.71h-5m5 50h-5m5 50h-5m5 50h-5m5 50h-5m105.5-99.5v5m-50-5v5m-50-5v5m-50-5v5m-50-5v5"/><text transform="translate(43.546 204.561)" font-family="'Concourse T3'" font-size="16">−2</text><text transform="translate(123.765 286.49)" font-family="'Concourse T3'" font-size="16">−2</text><text transform="translate(125.206 236.49)" font-family="'Concourse T3'" font-size="16">−1</text><text transform="translate(133.286 136.49)" font-family="'Concourse T3'" font-size="16">1</text><text transform="translate(131.845 86.49)" font-family="'Concourse T3'" font-size="16">2</text><text transform="translate(94.712 204.561)" font-family="'Concourse T3'" font-size="16">−1</text><text transform="translate(197.912 204.561)" font-family="'Concourse T3'" font-size="16">1</text><text transform="translate(247.212 204.561)" font-family="'Concourse T3'" font-size="16">2</text><path fill="none" stroke="#000" stroke-width="3" stroke-miterlimit="10" d="M299.187 328.155 4.224 33.678"/><path d="m299.816 323.55-1.503 3.732-3.73 1.509 8.829 3.581zM8.828 33.041l-3.73 1.509-1.502 3.732L0 29.46z"/><path fill="none" stroke="#CCC" stroke-miterlimit="10" d="M598.393 208.21v123m-50-123v123m-50-123v123m-50-123v123m-50-123v123m200-301v161m-50-161v161m-50-161v161m-50-161v161m-50-161v161m67.5 39.5h-118m118 50h-118m300-50h-159m159 50h-159m-13-200h-128m128 50h-128m300-50h-159m159 50h-159"/><path fill="none" stroke="#000" stroke-miterlimit="10" d="M498.393 325.21v-289"/><path d="m502.052 322.138-3.703 1.573-3.703-1.573 3.703 8.779zm0-282.943-3.703-1.573-3.703 1.573 3.703-8.778z"/><path fill="none" stroke="#000" stroke-miterlimit="10" d="M641.893 180.71h-288"/><path d="m639.071 177.213 1.573 3.703-1.573 3.704 8.778-3.704zm-281.943 0-1.574 3.703 1.574 3.704-8.779-3.704z"/><text transform="translate(652.46 186.716)" font-family="'Equity Text B'" font-style="italic" font-size="24">x</text><text transform="translate(495.54 20.471)" font-family="'Equity Text B'" font-style="italic" font-size="24">y</text><path fill="none" stroke="#000" stroke-miterlimit="10" d="M497.893 80.71h-5m5 50h-5m5 50h-5m5 50h-5m5 50h-5m105.5-99.5v5m-50-5v5m-50-5v5m-50-5v5m-50-5v5"/><text transform="translate(390.189 204.561)" font-family="'Concourse T3'" font-size="16">−2</text><text transform="translate(470.408 286.49)" font-family="'Concourse T3'" font-size="16">−2</text><text transform="translate(471.849 236.49)" font-family="'Concourse T3'" font-size="16">−1</text><text transform="translate(479.929 136.49)" font-family="'Concourse T3'" font-size="16">1</text><text transform="translate(478.488 86.49)" font-family="'Concourse T3'" font-size="16">2</text><text transform="translate(441.355 204.561)" font-family="'Concourse T3'" font-size="16">−1</text><text transform="translate(544.555 204.561)" font-family="'Concourse T3'" font-size="16">1</text><text transform="translate(593.855 204.561)" font-family="'Concourse T3'" font-size="16">2</text><path fill="none" stroke="#000" stroke-width="2" stroke-miterlimit="10" d="M351.111 278.398 594.466 34.641"/><path d="m355.716 279.027-3.732-1.503-1.51-3.73-3.581 8.829zM595.102 39.245l-1.509-3.73-3.732-1.503 8.823-3.595z"/><path fill="none" stroke="#000" stroke-width="2" stroke-miterlimit="10" d="M401.567 327.692 644.922 83.935"/><path d="m406.172 328.321-3.732-1.503-1.509-3.73-3.582 8.829zM645.558 88.539l-1.509-3.73-3.732-1.503 8.823-3.596z"/><circle cx="895.07" cy="130.412" r="4"/></svg>

<svg xmlns="http://www.w3.org/2000/svg" viewBox="0 0 1010.179 332.622" xml:space="preserve"><path fill="none" stroke="#CCC" stroke-miterlimit="10" d="M945.393 208.21v123M895.393 208.21v123M845.393 208.21v123M795.393 208.21v123M745.393 208.21v123M945.393 30.21v161M895.393 30.21v161M845.393 30.21v161M795.393 30.21v161M745.393 30.21v161M811.893 230.71h-117M811.893 280.71h-117M994.893 230.71h-159M994.893 280.71h-159M821.893 80.71h-127M821.893 130.71h-127M994.893 80.71h-159M994.893 130.71h-159"/><path fill="none" stroke="#000" stroke-miterlimit="10" d="M845.393 325.21v-289"/><path fill="#000" d="m848.695 322.138-3.703 1.573-3.703-1.573 3.703 8.779zM848.695 39.195l-3.703-1.573-3.703 1.573 3.703-8.778z"/><path fill="none" stroke="#000" stroke-miterlimit="10" d="M988.893 180.71h-288"/><path fill="#000" d="m985.714 177.213 1.573 3.703-1.573 3.704 8.778-3.704zM703.771 177.213l-1.574 3.703 1.574 3.704-8.779-3.704z"/><text transform="translate(999.104 186.716)" font-family="'Equity Text B'" font-style="italic" font-size="24">x</text><text transform="translate(842.184 20.471)" font-family="'Equity Text B'" font-style="italic" font-size="24">y</text><path fill="none" stroke="#000" stroke-miterlimit="10" d="M844.893 80.71h-5M844.893 130.71h-5M844.893 180.71h-5M844.893 230.71h-5M844.893 280.71h-5M945.393 181.21v5M895.393 181.21v5M845.393 181.21v5M795.393 181.21v5M745.393 181.21v5"/><text transform="translate(736.832 204.561)" font-family="'Concourse T3'" font-size="16">−2</text><text transform="translate(817.052 286.49)" font-family="'Concourse T3'" font-size="16">−2</text><text transform="translate(818.492 236.49)" font-family="'Concourse T3'" font-size="16">−1</text><text transform="translate(826.572 136.49)" font-family="'Concourse T3'" font-size="16">1</text><text transform="translate(825.131 86.49)" font-family="'Concourse T3'" font-size="16">2</text><text transform="translate(787.998 204.561)" font-family="'Concourse T3'" font-size="16">−1</text><text transform="translate(891.198 204.561)" font-family="'Concourse T3'" font-size="16">1</text><text transform="translate(940.498 204.561)" font-family="'Concourse T3'" font-size="16">2</text><path fill="none" stroke="#000" stroke-width="2" stroke-miterlimit="10" d="M700.893 130.21h288"/><path fill="#000" d="m703.433 134.196-1.574-3.703 1.574-3.703-8.779 3.703zM985.876 134.196l1.573-3.703-1.573-3.703 8.778 3.703z"/><path fill="none" stroke="#000" stroke-width="2" stroke-miterlimit="10" d="M697.754 328.398 992.23 33.435"/><path fill="#000" d="m702.359 329.026-3.732-1.503-1.51-3.729-3.581 8.828zM992.867 38.039l-1.509-3.73-3.733-1.503 8.823-3.596z"/><path fill="none" stroke="#CCC" stroke-miterlimit="10" d="M251.393 208.21v123M201.393 208.21v123M151.393 208.21v123M101.393 208.21v123M51.393 208.21v123M251.393 30.21v161M201.393 30.21v161M151.393 30.21v161M101.393 30.21v161M51.393 30.21v161M118.893 230.71h-118M118.893 280.71h-118M300.893 230.71h-159M300.893 280.71h-159M128.893 80.71h-128M128.893 130.71h-128M300.893 80.71h-159M300.893 130.71h-159"/><path fill="none" stroke="#000" stroke-miterlimit="10" d="M151.393 325.21v-289"/><path fill="#000" d="m155.409 322.138-3.703 1.573-3.703-1.573 3.703 8.779zM155.409 39.195l-3.703-1.573-3.703 1.573 3.703-8.778z"/><path fill="none" stroke="#000" stroke-miterlimit="10" d="M294.893 180.71h-287"/><path fill="#000" d="m292.428 177.213 1.573 3.703-1.573 3.704 8.778-3.704zM10.484 177.213l-1.573 3.703 1.573 3.704-8.778-3.704z"/><text transform="translate(305.818 186.716)" font-family="'Equity Text B'" font-style="italic" font-size="24">x</text><text transform="translate(148.898 20.471)" font-family="'Equity Text B'" font-style="italic" font-size="24">y</text><path fill="none" stroke="#000" stroke-miterlimit="10" d="M150.893 80.71h-5M150.893 130.71h-5M150.893 180.71h-5M150.893 230.71h-5M150.893 280.71h-5M251.393 181.21v5M201.393 181.21v5M151.393 181.21v5M101.393 181.21v5M51.393 181.21v5"/><text transform="translate(43.546 204.561)" font-family="'Concourse T3'" font-size="16">−2</text><text transform="translate(123.765 286.49)" font-family="'Concourse T3'" font-size="16">−2</text><text transform="translate(125.206 236.49)" font-family="'Concourse T3'" font-size="16">−1</text><text transform="translate(133.286 136.49)" font-family="'Concourse T3'" font-size="16">1</text><text transform="translate(131.845 86.49)" font-family="'Concourse T3'" font-size="16">2</text><text transform="translate(94.712 204.561)" font-family="'Concourse T3'" font-size="16">−1</text><text transform="translate(197.912 204.561)" font-family="'Concourse T3'" font-size="16">1</text><text transform="translate(247.212 204.561)" font-family="'Concourse T3'" font-size="16">2</text><path fill="none" stroke="#000" stroke-width="3" stroke-miterlimit="10" d="M299.187 328.155 4.224 33.678"/><path fill="#000" d="m299.816 323.55-1.503 3.732-3.73 1.509 8.829 3.581zM8.828 33.041l-3.73 1.509-1.502 3.732L0 29.46z"/><path fill="none" stroke="#CCC" stroke-miterlimit="10" d="M598.393 208.21v123M548.393 208.21v123M498.393 208.21v123M448.393 208.21v123M398.393 208.21v123M598.393 30.21v161M548.393 30.21v161M498.393 30.21v161M448.393 30.21v161M398.393 30.21v161M465.893 230.71h-118M465.893 280.71h-118M647.893 230.71h-159M647.893 280.71h-159M475.893 80.71h-128M475.893 130.71h-128M647.893 80.71h-159M647.893 130.71h-159"/><path fill="none" stroke="#000" stroke-miterlimit="10" d="M498.393 325.21v-289"/><path fill="#000" d="m502.052 322.138-3.703 1.573-3.703-1.573 3.703 8.779zM502.052 39.195l-3.703-1.573-3.703 1.573 3.703-8.778z"/><path fill="none" stroke="#000" stroke-miterlimit="10" d="M641.893 180.71h-288"/><path fill="#000" d="m639.071 177.213 1.573 3.703-1.573 3.704 8.778-3.704zM357.128 177.213l-1.574 3.703 1.574 3.704-8.779-3.704z"/><text transform="translate(652.46 186.716)" font-family="'Equity Text B'" font-style="italic" font-size="24">x</text><text transform="translate(495.54 20.471)" font-family="'Equity Text B'" font-style="italic" font-size="24">y</text><path fill="none" stroke="#000" stroke-miterlimit="10" d="M497.893 80.71h-5M497.893 130.71h-5M497.893 180.71h-5M497.893 230.71h-5M497.893 280.71h-5M598.393 181.21v5M548.393 181.21v5M498.393 181.21v5M448.393 181.21v5M398.393 181.21v5"/><text transform="translate(390.189 204.561)" font-family="'Concourse T3'" font-size="16">−2</text><text transform="translate(470.408 286.49)" font-family="'Concourse T3'" font-size="16">−2</text><text transform="translate(471.849 236.49)" font-family="'Concourse T3'" font-size="16">−1</text><text transform="translate(479.929 136.49)" font-family="'Concourse T3'" font-size="16">1</text><text transform="translate(478.488 86.49)" font-family="'Concourse T3'" font-size="16">2</text><text transform="translate(441.355 204.561)" font-family="'Concourse T3'" font-size="16">−1</text><text transform="translate(544.555 204.561)" font-family="'Concourse T3'" font-size="16">1</text><text transform="translate(593.855 204.561)" font-family="'Concourse T3'" font-size="16">2</text><path fill="none" stroke="#000" stroke-width="2" stroke-miterlimit="10" d="M351.111 278.398 594.466 34.641"/><path fill="#000" d="m355.716 279.027-3.732-1.503-1.51-3.73-3.581 8.829zM595.102 39.245l-1.509-3.73-3.732-1.503 8.823-3.595z"/><path fill="none" stroke="#000" stroke-width="2" stroke-miterlimit="10" d="M401.567 327.692 644.922 83.935"/><path fill="#000" d="m406.172 328.321-3.732-1.503-1.509-3.73-3.582 8.829zM645.558 88.539l-1.509-3.73-3.732-1.503 8.823-3.596z"/><circle fill="#000" cx="895.07" cy="130.412" r="4"/></svg>
